app/dist/common/images/air-lease.svg

<svg fill="none" height="18" width="18" xmlns="http://www.w3.org/2000/svg"><path d="m0 0h18v18h-18z" fill="#434343"/><path d="m4.39 8.915 9.305-.041m-9.194-1.26 8.986-.028m-8.225-1.274 7.463-.027m-5.981-1.247 4.514-.027m-5.138 7.767 5.802-.013m-6.881-1.275 8.003-.027m-8.612-1.26 9.152-.041m-4.666-5.677.042 9.221m.913-9.138c2.285 4.555.305 9.097.305 9.097m1.025-8.627c3.184 4.376.373 7.865.373 7.865m-4.832-7.851c-3.157 4.39-.235 7.906-.235 7.906m1.509-8.377c-2.257 4.542-.25 9.07-.25 9.07" stroke="#69c" stroke-width=".2"/><path d="m9 4v.554c2.3 0 4.252 1.8 4.432 4.098a4.44 4.44 0 0 1 -4.085 4.777c-.11.014-.235.014-.36.014-2.298 0-4.25-1.8-4.43-4.098a4.468 4.468 0 0 1 4.098-4.777c.11-.014.235-.014.36-.014zm0 0c-.124 0-.262 0-.4.014-2.742.221-4.805 2.617-4.584 5.372a5.007 5.007 0 0 0 4.985 4.61c.125 0 .263 0 .401-.013a5.004 5.004 0 0 0 4.584-5.372 4.996 4.996 0 0 0 -4.986-4.611z" fill="#fff"/><path d="m8.918 5.758-3.13 6.591-.429-.47 3.559-7.491 3.752 7.49-.415.485-3.296-6.563" fill="#fff"/><path d="m13.55 7.581c-1.26.942-1.96 2.22-6.972 3.107l.29-.623c3.323-.61 4.162-1.155 6.35-2.94" stroke="#fff" stroke-linejoin="bevel" stroke-width=".3"/></svg>

<!-- by TradingView --><svg width="18" height="18" fill="none" xmlns="http://www.w3.org/2000/svg"><path fill="#434343" d="M0 0h18v18H0z"/><path d="M4.39 8.915l9.305-.041M4.501 7.614l8.986-.028M5.262 6.312l7.463-.027M6.744 5.038l4.514-.027M6.12 12.778l5.802-.013M5.041 11.49l8.003-.027M4.432 10.203l9.152-.041M8.918 4.485l.042 9.221M9.873 4.568c2.285 4.555.305 9.097.305 9.097M11.203 5.038c3.184 4.376.373 7.865.373 7.865M6.744 5.052c-3.157 4.39-.235 7.906-.235 7.906M8.018 4.581c-2.257 4.542-.25 9.07-.25 9.07" stroke="#69C" stroke-width=".2"/><path d="M9 4v.554c2.3 0 4.252 1.8 4.432 4.098a4.44 4.44 0 01-4.085 4.777c-.11.014-.235.014-.36.014-2.298 0-4.25-1.8-4.43-4.098a4.468 4.468 0 014.098-4.777c.11-.014.235-.014.36-.014L9 4zm0 0c-.124 0-.262 0-.4.014-2.742.221-4.805 2.617-4.584 5.372a5.007 5.007 0 004.985 4.61c.125 0 .263 0 .401-.013a5.004 5.004 0 004.584-5.372A4.996 4.996 0 009 4z" fill="#fff"/><path d="M8.918 5.758l-3.13 6.591-.429-.47 3.559-7.491 3.752 7.49-.415.485L8.959 5.8" fill="#fff"/><path d="M13.55 7.581c-1.26.942-1.96 2.22-6.972 3.107l.29-.623c3.323-.61 4.162-1.155 6.35-2.94" stroke="#fff" stroke-width=".3" stroke-linejoin="bevel"/></svg>
